X:1
T:Standin In The Need of Prayer
T:Wait a little while
T:Copyright 1881 by The Riverside Press
T:Rodeheaver's Plantation Melodies
T:Rodeheaver's Plantation Melodies
Z:Rodeheaver's Plantation Melodies
%%score [ 1 2 3 4 ]
L:1/8
M:4/4
K:G
V:1 treble nm="Soprano" snm="S."
V:2 treble nm="Alto" snm="A."
V:3 bass nm="Tenor" snm="T."
V:4 bass nm="Bass" snm="B."
V:1
 d3 d e<d !fermata!B2 | GB B>B B A3 | c3 c c<c !fermata!A2 | FA !fermata!d>c B G2 || d!fine! | %5
w: Wait a lit- tle while||Wait a lit- tle while||My|
w: |||||
 d/dd/ d>d ed B2 | GB B>B B A2 c || c/cc>ccc A2 | FA d>c B G3!D.C.! |] %9
w: heav- en- ly home is bright and fair.|* * * * * * No|pain or sor- row en- ter there.||
w: Je- sus my Lord to Heav'n is gone.|* * * * * * He|whom I * my hopes up- on.||
V:2
 z8 | GG G>G G F3 | z8 | DF !fermata!F>A G G2 || z | z8 | GG G>G G F2 z || z4 z2 z z/ | %8
w: |Then we'll sing the new song.||Then we'll sing the new song.|||We will sing the new song.||
 DF F>A G G3 |] %9
w: We will sing the new song.|
V:3
 z8 | B,D D>D D D3 | z8 | B,D !fermata!D>D D B,2 || z | z8 | B,D D>D D D2 z || z4 z2 z z/ | %8
 A,D D>D D B,3 |] %9
V:4
 z8 | G,G, G,>G, D, D,3 | z8 | D,D, !fermata!D,>D, G, G,2 || z | z8 | G,G, G,>G, D, D,2 z || %7
"_2." z4 z2 z z/ | D,D, D,>D, D, G,3 |] %9

